icons/circle/48/devpod.svg

<?xml version="1.0" encoding="UTF-8" standalone="no"?>
<svg
   version="1.1"
   viewBox="0 0 48 48"
   id="svg3416"
   sodipodi:docname="devpod.svg"
   inkscape:version="1.2.2 (b0a8486541, 2022-12-01)"
   xmlns:inkscape="http://www.inkscape.org/namespaces/inkscape"
   xmlns:sodipodi="http://sodipodi.sourceforge.net/DTD/sodipodi-0.dtd"
   xmlns="http://www.w3.org/2000/svg"
   xmlns:svg="http://www.w3.org/2000/svg">
  <sodipodi:namedview
     id="namedview3418"
     pagecolor="#ffffff"
     bordercolor="#000000"
     borderopacity="0.25"
     inkscape:showpageshadow="2"
     inkscape:pageopacity="0.0"
     inkscape:pagecheckerboard="0"
     inkscape:deskcolor="#d1d1d1"
     showgrid="false"
     inkscape:zoom="1"
     inkscape:cx="27.5"
     inkscape:cy="28.5"
     inkscape:window-width="1920"
     inkscape:window-height="1046"
     inkscape:window-x="0"
     inkscape:window-y="0"
     inkscape:window-maximized="1"
     inkscape:current-layer="svg3416">
    <inkscape:grid
       type="xygrid"
       id="grid4336" />
  </sodipodi:namedview>
  <defs
     id="defs3400">
    <linearGradient
       id="bg"
       x2="0"
       y1="1"
       y2="47"
       gradientUnits="userSpaceOnUse">
      <stop
         style="stop-color:#dcc4e4;stop-opacity:1;"
         offset="0"
         id="stop3395" />
      <stop
         style="stop-color:#d5b7de;stop-opacity:1;"
         offset="1"
         id="stop3397" />
    </linearGradient>
  </defs>
  <path
     d="m36.31 5c5.859 4.062 9.688 10.831 9.688 18.5 0 12.426-10.07 22.5-22.5 22.5-7.669 0-14.438-3.828-18.5-9.688 1.037 1.822 2.306 3.499 3.781 4.969 4.085 3.712 9.514 5.969 15.469 5.969 12.703 0 23-10.298 23-23 0-5.954-2.256-11.384-5.969-15.469-1.469-1.475-3.147-2.744-4.969-3.781zm4.969 3.781c3.854 4.113 6.219 9.637 6.219 15.719 0 12.703-10.297 23-23 23-6.081 0-11.606-2.364-15.719-6.219 4.16 4.144 9.883 6.719 16.219 6.719 12.703 0 23-10.298 23-23 0-6.335-2.575-12.06-6.719-16.219z"
     style="opacity:.05"
     id="path3402" />
  <path
     d="m41.28 8.781c3.712 4.085 5.969 9.514 5.969 15.469 0 12.703-10.297 23-23 23-5.954 0-11.384-2.256-15.469-5.969 4.113 3.854 9.637 6.219 15.719 6.219 12.703 0 23-10.298 23-23 0-6.081-2.364-11.606-6.219-15.719z"
     style="opacity:.1"
     id="path3404" />
  <path
     d="m31.25 2.375c8.615 3.154 14.75 11.417 14.75 21.13 0 12.426-10.07 22.5-22.5 22.5-9.708 0-17.971-6.135-21.12-14.75a23 23 0 0 0 44.875-7 23 23 0 0 0-16-21.875z"
     style="opacity:.2"
     id="path3406" />
  <circle
     cx="24"
     cy="24"
     r="23"
     style="fill:url(#bg)"
     id="circle3408" />
  <path
     d="m40.03 7.531c3.712 4.084 5.969 9.514 5.969 15.469 0 12.703-10.297 23-23 23-5.954 0-11.384-2.256-15.469-5.969 4.178 4.291 10.01 6.969 16.469 6.969 12.703 0 23-10.298 23-23 0-6.462-2.677-12.291-6.969-16.469z"
     style="opacity:.1"
     id="path3410" />
  <path
     id="path4338"
     d="M 27.5,12 19,28 17.5,25 20.626953,19 H 17.222656 L 14,25 17.5,31 H 21 L 31,12 Z M 29,19 19,38 h 3.5 l 8.5,-16 1.5,3 -3.126953,6 h 3.404297 L 36,25 32.5,19 Z"
     style="opacity:0.1" />
  <path
     id="path1538"
     d="M 26.5,11 18,27 16.5,24 19.626953,18 H 16.222656 L 13,24 16.5,30 H 20 L 30,11 Z M 28,18 18,37 h 3.5 l 8.5,-16 1.5,3 -3.126953,6 h 3.404297 L 35,24 31.5,18 Z"
     style="fill:#a256d2;fill-opacity:1" />
</svg>

<svg version="1.1" viewBox="0 0 48 48" xmlns="http://www.w3.org/2000/svg">
 <defs>
  <linearGradient id="bg" x2="0" y1="1" y2="47" gradientUnits="userSpaceOnUse">
   <stop style="stop-color:#dcc4e4" offset="0"/>
   <stop style="stop-color:#d5b7de" offset="1"/>
  </linearGradient>
 </defs>
 <path d="m36.3 5c5.86 4.06 9.69 10.8 9.69 18.5 0 12.4-10.1 22.5-22.5 22.5-7.67 0-14.4-3.83-18.5-9.69 1.04 1.82 2.31 3.5 3.78 4.97 4.08 3.71 9.51 5.97 15.5 5.97 12.7 0 23-10.3 23-23 0-5.95-2.26-11.4-5.97-15.5-1.47-1.48-3.15-2.74-4.97-3.78zm4.97 3.78c3.85 4.11 6.22 9.64 6.22 15.7 0 12.7-10.3 23-23 23-6.08 0-11.6-2.36-15.7-6.22 4.16 4.14 9.88 6.72 16.2 6.72 12.7 0 23-10.3 23-23 0-6.34-2.58-12.1-6.72-16.2z" style="opacity:.05"/>
 <path d="m41.3 8.78c3.71 4.08 5.97 9.51 5.97 15.5 0 12.7-10.3 23-23 23-5.95 0-11.4-2.26-15.5-5.97 4.11 3.85 9.64 6.22 15.7 6.22 12.7 0 23-10.3 23-23 0-6.08-2.36-11.6-6.22-15.7z" style="opacity:.1"/>
 <path d="m31.2 2.38c8.62 3.15 14.8 11.4 14.8 21.1 0 12.4-10.1 22.5-22.5 22.5-9.71 0-18-6.14-21.1-14.8a23 23 0 0 0 44.9-7 23 23 0 0 0-16-21.9z" style="opacity:.2"/>
 <circle cx="24" cy="24" r="23" style="fill:url(#bg)"/>
 <path d="m40 7.53c3.71 4.08 5.97 9.51 5.97 15.5 0 12.7-10.3 23-23 23-5.95 0-11.4-2.26-15.5-5.97 4.18 4.29 10 6.97 16.5 6.97 12.7 0 23-10.3 23-23 0-6.46-2.68-12.3-6.97-16.5z" style="opacity:.1"/>
 <path d="m27.5 12-8.5 16-1.5-3 3.13-6h-3.4l-3.22 6 3.5 6h3.5l10-19zm1.5 7-10 19h3.5l8.5-16 1.5 3-3.13 6h3.4l3.22-6-3.5-6z" style="opacity:.1"/>
 <path d="m26.5 11-8.5 16-1.5-3 3.13-6h-3.4l-3.22 6 3.5 6h3.5l10-19zm1.5 7-10 19h3.5l8.5-16 1.5 3-3.13 6h3.4l3.22-6-3.5-6z" style="fill:#a256d2"/>
</svg>
